images/50571407.svg

<?xml version="1.0" encoding="UTF-8"?>
<svg xmlns="http://www.w3.org/2000/svg" xmlns:xlink="http://www.w3.org/1999/xlink" width="300pt" height="300pt" viewBox="0 0 300 300" version="1.1">
<defs>
<g>
<symbol overflow="visible" id="glyph0-0">
<path style="stroke:none;" d="M 0.453125 1.59375 L 0.453125 -6.34375 L 4.953125 -6.34375 L 4.953125 1.59375 Z M 0.953125 1.09375 L 4.453125 1.09375 L 4.453125 -5.84375 L 0.953125 -5.84375 Z M 0.953125 1.09375 "/>
</symbol>
<symbol overflow="visible" id="glyph0-1">
<path style="stroke:none;" d="M 3.546875 -5.953125 C 2.898438 -5.953125 2.382812 -5.710938 2 -5.234375 C 1.625 -4.753906 1.4375 -4.101562 1.4375 -3.28125 C 1.4375 -2.445312 1.625 -1.789062 2 -1.3125 C 2.382812 -0.832031 2.898438 -0.59375 3.546875 -0.59375 C 4.191406 -0.59375 4.703125 -0.832031 5.078125 -1.3125 C 5.453125 -1.789062 5.640625 -2.445312 5.640625 -3.28125 C 5.640625 -4.101562 5.453125 -4.753906 5.078125 -5.234375 C 4.703125 -5.710938 4.191406 -5.953125 3.546875 -5.953125 Z M 3.546875 -6.6875 C 4.460938 -6.6875 5.195312 -6.375 5.75 -5.75 C 6.300781 -5.132812 6.578125 -4.3125 6.578125 -3.28125 C 6.578125 -2.238281 6.300781 -1.410156 5.75 -0.796875 C 5.195312 -0.179688 4.460938 0.125 3.546875 0.125 C 2.617188 0.125 1.878906 -0.179688 1.328125 -0.796875 C 0.773438 -1.410156 0.5 -2.238281 0.5 -3.28125 C 0.5 -4.3125 0.773438 -5.132812 1.328125 -5.75 C 1.878906 -6.375 2.617188 -6.6875 3.546875 -6.6875 Z M 3.546875 -6.6875 "/>
</symbol>
<symbol overflow="visible" id="glyph0-2">
<path style="stroke:none;" d="M 0.890625 -6.5625 L 2.078125 -6.5625 L 4.984375 -1.078125 L 4.984375 -6.5625 L 5.84375 -6.5625 L 5.84375 0 L 4.65625 0 L 1.75 -5.484375 L 1.75 0 L 0.890625 0 Z M 0.890625 -6.5625 "/>
</symbol>
<symbol overflow="visible" id="glyph0-3">
<path style="stroke:none;" d="M 0.890625 -6.5625 L 1.765625 -6.5625 L 1.765625 -3.875 L 5 -3.875 L 5 -6.5625 L 5.890625 -6.5625 L 5.890625 0 L 5 0 L 5 -3.125 L 1.765625 -3.125 L 1.765625 0 L 0.890625 0 Z M 0.890625 -6.5625 "/>
</symbol>
</g>
</defs>
<g id="surface22469">
<rect x="0" y="0" width="300" height="300" style="fill:rgb(100%,100%,100%);fill-opacity:1;stroke:none;"/>
<path style="fill:none;stroke-width:1.2;stroke-linecap:butt;stroke-linejoin:miter;stroke:rgb(100%,0%,0%);stroke-opacity:1;stroke-miterlimit:10;" d="M 140.722656 170.679688 L 130.128906 165.082031 "/>
<path style="fill:none;stroke-width:1.2;stroke-linecap:butt;stroke-linejoin:miter;stroke:rgb(0%,0%,0%);stroke-opacity:1;stroke-miterlimit:10;" d="M 130.128906 165.082031 L 119.53125 159.480469 "/>
<path style="fill:none;stroke-width:1.2;stroke-linecap:butt;stroke-linejoin:miter;stroke:rgb(100%,0%,0%);stroke-opacity:1;stroke-miterlimit:10;" d="M 138.085938 175.664062 L 127.492188 170.066406 "/>
<path style="fill:none;stroke-width:1.2;stroke-linecap:butt;stroke-linejoin:miter;stroke:rgb(0%,0%,0%);stroke-opacity:1;stroke-miterlimit:10;" d="M 127.492188 170.066406 L 116.898438 164.46875 "/>
<path style=" stroke:none;fill-rule:nonzero;fill:rgb(100%,100%,100%);fill-opacity:1;" d="M 135.40625 167.671875 L 143.40625 167.671875 L 143.40625 178.671875 L 135.40625 178.671875 Z M 135.40625 167.671875 "/>
<g style="fill:rgb(100%,0%,0%);fill-opacity:1;">
  <use xlink:href="#glyph0-1" x="135.40625" y="176.334961"/>
</g>
<path style="fill:none;stroke-width:1.2;stroke-linecap:butt;stroke-linejoin:miter;stroke:rgb(0%,0%,0%);stroke-opacity:1;stroke-miterlimit:10;" d="M 118.214844 161.976562 L 117.765625 150 "/>
<path style="fill:none;stroke-width:1.2;stroke-linecap:butt;stroke-linejoin:miter;stroke:rgb(0%,0%,100%);stroke-opacity:1;stroke-miterlimit:10;" d="M 117.765625 150 L 117.316406 138.023438 "/>
<path style="fill:none;stroke-width:1.2;stroke-linecap:butt;stroke-linejoin:miter;stroke:rgb(0%,0%,0%);stroke-opacity:1;stroke-miterlimit:10;" d="M 118.214844 161.976562 L 97.921875 174.726562 "/>
<path style="fill:none;stroke-width:1.2;stroke-linecap:butt;stroke-linejoin:miter;stroke:rgb(0%,0%,100%);stroke-opacity:1;stroke-miterlimit:10;" d="M 117.316406 138.023438 L 106.722656 132.425781 "/>
<path style="fill:none;stroke-width:1.2;stroke-linecap:butt;stroke-linejoin:miter;stroke:rgb(0%,0%,0%);stroke-opacity:1;stroke-miterlimit:10;" d="M 106.722656 132.425781 L 96.128906 126.828125 "/>
<path style="fill:none;stroke-width:1.2;stroke-linecap:butt;stroke-linejoin:miter;stroke:rgb(0%,0%,100%);stroke-opacity:1;stroke-miterlimit:10;" d="M 117.316406 138.023438 L 127.464844 131.648438 "/>
<path style="fill:none;stroke-width:1.2;stroke-linecap:butt;stroke-linejoin:miter;stroke:rgb(0%,0%,0%);stroke-opacity:1;stroke-miterlimit:10;" d="M 127.464844 131.648438 L 137.609375 125.273438 "/>
<path style=" stroke:none;fill-rule:nonzero;fill:rgb(100%,100%,100%);fill-opacity:1;" d="M 114.316406 132.523438 L 121.316406 132.523438 L 121.316406 143.523438 L 114.316406 143.523438 Z M 114.316406 132.523438 "/>
<g style="fill:rgb(0%,0%,100%);fill-opacity:1;">
  <use xlink:href="#glyph0-2" x="114.316406" y="141.186523"/>
</g>
<path style="fill:none;stroke-width:1.2;stroke-linecap:butt;stroke-linejoin:miter;stroke:rgb(0%,0%,0%);stroke-opacity:1;stroke-miterlimit:10;" d="M 96.128906 126.828125 L 75.835938 139.578125 "/>
<path style="fill:none;stroke-width:1.2;stroke-linecap:butt;stroke-linejoin:miter;stroke:rgb(0%,0%,0%);stroke-opacity:1;stroke-miterlimit:10;" d="M 137.609375 125.273438 L 148.203125 130.871094 "/>
<path style="fill:none;stroke-width:1.2;stroke-linecap:butt;stroke-linejoin:miter;stroke:rgb(0%,0%,100%);stroke-opacity:1;stroke-miterlimit:10;" d="M 148.203125 130.871094 L 158.800781 136.46875 "/>
<path style="fill:none;stroke-width:1.2;stroke-linecap:butt;stroke-linejoin:miter;stroke:rgb(0%,0%,0%);stroke-opacity:1;stroke-miterlimit:10;" d="M 142.363281 121.40625 L 150.839844 125.886719 "/>
<path style="fill:none;stroke-width:1.2;stroke-linecap:butt;stroke-linejoin:miter;stroke:rgb(0%,0%,100%);stroke-opacity:1;stroke-miterlimit:10;" d="M 150.839844 125.886719 L 159.316406 130.363281 "/>
<path style="fill:none;stroke-width:1.2;stroke-linecap:butt;stroke-linejoin:miter;stroke:rgb(0%,0%,0%);stroke-opacity:1;stroke-miterlimit:10;" d="M 136.710938 101.324219 L 137.609375 125.273438 "/>
<path style="fill:none;stroke-width:1.2;stroke-linecap:butt;stroke-linejoin:miter;stroke:rgb(0%,0%,100%);stroke-opacity:1;stroke-miterlimit:10;" d="M 158.800781 136.46875 L 168.945312 130.09375 "/>
<path style="fill:none;stroke-width:1.2;stroke-linecap:butt;stroke-linejoin:miter;stroke:rgb(0%,0%,0%);stroke-opacity:1;stroke-miterlimit:10;" d="M 168.945312 130.09375 L 179.09375 123.71875 "/>
<path style=" stroke:none;fill-rule:nonzero;fill:rgb(100%,100%,100%);fill-opacity:1;" d="M 155.800781 130.96875 L 162.800781 130.96875 L 162.800781 141.96875 L 155.800781 141.96875 Z M 155.800781 130.96875 "/>
<g style="fill:rgb(0%,0%,100%);fill-opacity:1;">
  <use xlink:href="#glyph0-2" x="155.800781" y="139.631836"/>
</g>
<path style="fill:none;stroke-width:1.2;stroke-linecap:butt;stroke-linejoin:miter;stroke:rgb(0%,0%,0%);stroke-opacity:1;stroke-miterlimit:10;" d="M 179.09375 123.71875 L 178.644531 111.742188 "/>
<path style="fill:none;stroke-width:1.2;stroke-linecap:butt;stroke-linejoin:miter;stroke:rgb(0%,0%,100%);stroke-opacity:1;stroke-miterlimit:10;" d="M 178.644531 111.742188 L 178.195312 99.769531 "/>
<path style="fill:none;stroke-width:1.2;stroke-linecap:butt;stroke-linejoin:miter;stroke:rgb(0%,0%,0%);stroke-opacity:1;stroke-miterlimit:10;" d="M 173.367188 121.535156 L 173.007812 111.953125 "/>
<path style="fill:none;stroke-width:1.2;stroke-linecap:butt;stroke-linejoin:miter;stroke:rgb(0%,0%,100%);stroke-opacity:1;stroke-miterlimit:10;" d="M 173.007812 111.953125 L 172.648438 102.375 "/>
<path style="fill:none;stroke-width:1.2;stroke-linecap:butt;stroke-linejoin:miter;stroke:rgb(0%,0%,0%);stroke-opacity:1;stroke-miterlimit:10;" d="M 179.09375 123.71875 L 189.6875 129.316406 "/>
<path style="fill:none;stroke-width:1.2;stroke-linecap:butt;stroke-linejoin:miter;stroke:rgb(0%,0%,100%);stroke-opacity:1;stroke-miterlimit:10;" d="M 189.6875 129.316406 L 200.28125 134.914062 "/>
<path style="fill:none;stroke-width:1.2;stroke-linecap:butt;stroke-linejoin:miter;stroke:rgb(0%,0%,100%);stroke-opacity:1;stroke-miterlimit:10;" d="M 178.195312 99.769531 L 167.601562 94.167969 "/>
<path style="fill:none;stroke-width:1.2;stroke-linecap:butt;stroke-linejoin:miter;stroke:rgb(0%,0%,0%);stroke-opacity:1;stroke-miterlimit:10;" d="M 167.601562 94.167969 L 157.003906 88.570312 "/>
<path style=" stroke:none;fill-rule:nonzero;fill:rgb(100%,100%,100%);fill-opacity:1;" d="M 175.195312 94.269531 L 182.195312 94.269531 L 182.195312 105.269531 L 175.195312 105.269531 Z M 175.195312 94.269531 "/>
<g style="fill:rgb(0%,0%,100%);fill-opacity:1;">
  <use xlink:href="#glyph0-2" x="175.195312" y="102.932617"/>
</g>
<path style="fill:none;stroke-width:1.2;stroke-linecap:butt;stroke-linejoin:miter;stroke:rgb(0%,0%,0%);stroke-opacity:1;stroke-miterlimit:10;" d="M 157.003906 88.570312 L 136.710938 101.324219 "/>
<path style="fill:none;stroke-width:1.2;stroke-linecap:butt;stroke-linejoin:miter;stroke:rgb(0%,0%,0%);stroke-opacity:1;stroke-miterlimit:10;" d="M 157.976562 94.621094 L 141.742188 104.824219 "/>
<path style="fill:none;stroke-width:1;stroke-linecap:butt;stroke-linejoin:miter;stroke:rgb(0%,0%,0%);stroke-opacity:1;stroke-miterlimit:10;" d="M 201.179688 158.867188 L 201.179688 158.867188 M 201.589844 155.894531 L 200.546875 155.933594 M 202 152.921875 L 199.917969 153 M 202.410156 149.949219 L 199.285156 150.066406 M 202.820312 146.980469 L 198.652344 147.132812 M 203.230469 144.007812 L 198.023438 144.203125 M 203.640625 141.035156 L 197.390625 141.269531 M 204.050781 138.0625 L 196.757812 138.335938 M 204.460938 135.089844 L 196.125 135.402344 M 204.507812 134.757812 L 196.054688 135.074219 "/>
<path style=" stroke:none;fill-rule:nonzero;fill:rgb(100%,100%,100%);fill-opacity:1;" d="M 193.28125 129.414062 L 207.28125 129.414062 L 207.28125 140.414062 L 193.28125 140.414062 Z M 193.28125 129.414062 "/>
<g style="fill:rgb(0%,0%,100%);fill-opacity:1;">
  <use xlink:href="#glyph0-2" x="193.28125" y="138.077148"/>
  <use xlink:href="#glyph0-3" x="200.258789" y="138.077148"/>
</g>
<path style="fill:none;stroke-width:1.2;stroke-linecap:butt;stroke-linejoin:miter;stroke:rgb(0%,0%,0%);stroke-opacity:1;stroke-miterlimit:10;" d="M 201.179688 158.867188 L 180.886719 171.617188 "/>
<path style="fill:none;stroke-width:1.2;stroke-linecap:butt;stroke-linejoin:miter;stroke:rgb(0%,0%,0%);stroke-opacity:1;stroke-miterlimit:10;" d="M 201.179688 158.867188 L 222.371094 170.0625 "/>
<path style="fill:none;stroke-width:1.2;stroke-linecap:butt;stroke-linejoin:miter;stroke:rgb(0%,0%,0%);stroke-opacity:1;stroke-miterlimit:10;" d="M 222.371094 170.0625 L 223.265625 194.011719 "/>
<path style="fill:none;stroke-width:1.2;stroke-linecap:butt;stroke-linejoin:miter;stroke:rgb(0%,0%,0%);stroke-opacity:1;stroke-miterlimit:10;" d="M 228.09375 172.246094 L 228.8125 191.40625 "/>
<path style="fill:none;stroke-width:1.2;stroke-linecap:butt;stroke-linejoin:miter;stroke:rgb(0%,0%,0%);stroke-opacity:1;stroke-miterlimit:10;" d="M 242.664062 157.3125 L 222.371094 170.0625 "/>
<path style="fill:none;stroke-width:1.2;stroke-linecap:butt;stroke-linejoin:miter;stroke:rgb(0%,0%,0%);stroke-opacity:1;stroke-miterlimit:10;" d="M 223.265625 194.011719 L 244.457031 205.210938 "/>
<path style="fill:none;stroke-width:1.2;stroke-linecap:butt;stroke-linejoin:miter;stroke:rgb(0%,0%,0%);stroke-opacity:1;stroke-miterlimit:10;" d="M 244.457031 205.210938 L 264.75 192.457031 "/>
<path style="fill:none;stroke-width:1.2;stroke-linecap:butt;stroke-linejoin:miter;stroke:rgb(0%,0%,0%);stroke-opacity:1;stroke-miterlimit:10;" d="M 243.484375 199.160156 L 259.71875 188.960938 "/>
<path style="fill:none;stroke-width:1.2;stroke-linecap:butt;stroke-linejoin:miter;stroke:rgb(0%,0%,0%);stroke-opacity:1;stroke-miterlimit:10;" d="M 264.75 192.457031 L 263.851562 168.507812 "/>
<path style="fill:none;stroke-width:1.2;stroke-linecap:butt;stroke-linejoin:miter;stroke:rgb(0%,0%,0%);stroke-opacity:1;stroke-miterlimit:10;" d="M 263.851562 168.507812 L 242.664062 157.3125 "/>
<path style="fill:none;stroke-width:1.2;stroke-linecap:butt;stroke-linejoin:miter;stroke:rgb(0%,0%,0%);stroke-opacity:1;stroke-miterlimit:10;" d="M 259.097656 172.375 L 242.148438 163.417969 "/>
<path style="fill:none;stroke-width:1.2;stroke-linecap:butt;stroke-linejoin:miter;stroke:rgb(0%,0%,0%);stroke-opacity:1;stroke-miterlimit:10;" d="M 97.921875 174.726562 L 76.734375 163.53125 "/>
<path style="fill:none;stroke-width:1.2;stroke-linecap:butt;stroke-linejoin:miter;stroke:rgb(0%,0%,0%);stroke-opacity:1;stroke-miterlimit:10;" d="M 93.167969 178.59375 L 76.214844 169.636719 "/>
<path style="fill:none;stroke-width:1.2;stroke-linecap:butt;stroke-linejoin:miter;stroke:rgb(0%,0%,0%);stroke-opacity:1;stroke-miterlimit:10;" d="M 98.820312 198.675781 L 97.921875 174.726562 "/>
<path style="fill:none;stroke-width:1.2;stroke-linecap:butt;stroke-linejoin:miter;stroke:rgb(0%,0%,0%);stroke-opacity:1;stroke-miterlimit:10;" d="M 76.734375 163.53125 L 56.441406 176.28125 "/>
<path style="fill:none;stroke-width:1.2;stroke-linecap:butt;stroke-linejoin:miter;stroke:rgb(0%,0%,0%);stroke-opacity:1;stroke-miterlimit:10;" d="M 56.441406 176.28125 L 57.335938 200.230469 "/>
<path style="fill:none;stroke-width:1.2;stroke-linecap:butt;stroke-linejoin:miter;stroke:rgb(0%,0%,0%);stroke-opacity:1;stroke-miterlimit:10;" d="M 62.164062 178.464844 L 62.882812 197.625 "/>
<path style="fill:none;stroke-width:1.2;stroke-linecap:butt;stroke-linejoin:miter;stroke:rgb(0%,0%,0%);stroke-opacity:1;stroke-miterlimit:10;" d="M 56.441406 176.28125 L 35.25 165.085938 "/>
<path style="fill:none;stroke-width:1.2;stroke-linecap:butt;stroke-linejoin:miter;stroke:rgb(0%,0%,0%);stroke-opacity:1;stroke-miterlimit:10;" d="M 57.335938 200.230469 L 78.527344 211.429688 "/>
<path style="fill:none;stroke-width:1.2;stroke-linecap:butt;stroke-linejoin:miter;stroke:rgb(0%,0%,0%);stroke-opacity:1;stroke-miterlimit:10;" d="M 78.527344 211.429688 L 98.820312 198.675781 "/>
<path style="fill:none;stroke-width:1.2;stroke-linecap:butt;stroke-linejoin:miter;stroke:rgb(0%,0%,0%);stroke-opacity:1;stroke-miterlimit:10;" d="M 77.554688 205.378906 L 93.789062 195.175781 "/>
</g>
</svg>

<svg xmlns="http://www.w3.org/2000/svg" xmlns:xlink="http://www.w3.org/1999/xlink" width="300pt" height="300pt" viewBox="0 0 300 300"><defs><symbol overflow="visible"><path d="M.453 1.594v-7.938h4.5v7.938zm.5-.5h3.5v-6.938h-3.5zm0 0"/></symbol><symbol overflow="visible" id="a"><path d="M3.547-5.953c-.65 0-1.164.242-1.547.72-.375.48-.563 1.13-.563 1.952 0 .835.188 1.49.563 1.967.383.48.898.72 1.547.72.644 0 1.156-.24 1.53-.72.376-.476.564-1.132.564-1.968 0-.822-.187-1.474-.562-1.954-.375-.477-.887-.72-1.53-.72zm0-.734c.914 0 1.648.312 2.203.937.55.617.828 1.438.828 2.47 0 1.042-.277 1.87-.828 2.483-.555.617-1.29.922-2.203.922-.93 0-1.668-.305-2.22-.922C.774-1.41.5-2.237.5-3.28c0-1.033.273-1.853.828-2.47.55-.625 1.29-.938 2.22-.938zm0 0"/></symbol><symbol overflow="visible" id="b"><path d="M.89-6.563H2.08l2.906 5.485v-5.484h.86V0H4.656L1.75-5.484V0H.89zm0 0"/></symbol><symbol overflow="visible" id="c"><path d="M.89-6.563h.876v2.688H5v-2.688h.89V0H5v-3.125H1.766V0H.89zm0 0"/></symbol></defs><g><path fill="#fff" d="M0 0h300v300H0z"/><path d="M140.723 170.68l-10.594-5.598" stroke-width="1.2" stroke="#f00" stroke-miterlimit="10" fill="none"/><path d="M130.13 165.082l-10.6-5.602" stroke-width="1.2" stroke="#000" stroke-miterlimit="10" fill="none"/><path d="M138.086 175.664l-10.594-5.598" stroke-width="1.2" stroke="#f00" stroke-miterlimit="10" fill="none"/><path d="M127.492 170.066l-10.594-5.597" stroke-width="1.2" stroke="#000" stroke-miterlimit="10" fill="none"/><path d="M135.406 167.672h8v11h-8zm0 0" fill="#fff"/><use xlink:href="#a" x="135.406" y="176.335" fill="#f00"/><path d="M118.215 161.977l-.45-11.977" stroke-width="1.2" stroke="#000" stroke-miterlimit="10" fill="none"/><path d="M117.766 150l-.45-11.977" stroke-width="1.2" stroke="#00f" stroke-miterlimit="10" fill="none"/><path d="M118.215 161.977l-20.293 12.75" stroke-width="1.2" stroke="#000" stroke-miterlimit="10" fill="none"/><path d="M117.316 138.023l-10.593-5.597" stroke-width="1.2" stroke="#00f" stroke-miterlimit="10" fill="none"/><path d="M106.723 132.426l-10.594-5.598" stroke-width="1.2" stroke="#000" stroke-miterlimit="10" fill="none"/><path d="M117.316 138.023l10.15-6.375" stroke-width="1.2" stroke="#00f" stroke-miterlimit="10" fill="none"/><path d="M127.465 131.648l10.144-6.375" stroke-width="1.2" stroke="#000" stroke-miterlimit="10" fill="none"/><path d="M114.316 132.523h7v11h-7zm0 0" fill="#fff"/><use xlink:href="#b" x="114.316" y="141.187" fill="#00f"/><path d="M96.13 126.828l-20.294 12.75M137.61 125.273l10.593 5.598" stroke-width="1.2" stroke="#000" stroke-miterlimit="10" fill="none"/><path d="M148.203 130.87l10.598 5.6" stroke-width="1.2" stroke="#00f" stroke-miterlimit="10" fill="none"/><path d="M142.363 121.406l8.477 4.48" stroke-width="1.2" stroke="#000" stroke-miterlimit="10" fill="none"/><path d="M150.84 125.887l8.476 4.476" stroke-width="1.2" stroke="#00f" stroke-miterlimit="10" fill="none"/><path d="M136.71 101.324l.9 23.95" stroke-width="1.2" stroke="#000" stroke-miterlimit="10" fill="none"/><path d="M158.8 136.47l10.145-6.376" stroke-width="1.2" stroke="#00f" stroke-miterlimit="10" fill="none"/><path d="M168.945 130.094l10.15-6.375" stroke-width="1.2" stroke="#000" stroke-miterlimit="10" fill="none"/><path d="M155.8 130.97h7v11h-7zm0 0" fill="#fff"/><use xlink:href="#b" x="155.801" y="139.632" fill="#00f"/><path d="M179.094 123.72l-.45-11.978" stroke-width="1.2" stroke="#000" stroke-miterlimit="10" fill="none"/><path d="M178.645 111.742l-.45-11.972" stroke-width="1.2" stroke="#00f" stroke-miterlimit="10" fill="none"/><path d="M173.367 121.535l-.36-9.582" stroke-width="1.2" stroke="#000" stroke-miterlimit="10" fill="none"/><path d="M173.008 111.953l-.36-9.578" stroke-width="1.2" stroke="#00f" stroke-miterlimit="10" fill="none"/><path d="M179.094 123.72l10.594 5.596" stroke-width="1.2" stroke="#000" stroke-miterlimit="10" fill="none"/><path d="M189.688 129.316l10.593 5.598M178.195 99.77l-10.593-5.602" stroke-width="1.2" stroke="#00f" stroke-miterlimit="10" fill="none"/><path d="M167.602 94.168l-10.598-5.598" stroke-width="1.2" stroke="#000" stroke-miterlimit="10" fill="none"/><path d="M175.195 94.27h7v11h-7zm0 0" fill="#fff"/><use xlink:href="#b" x="175.195" y="102.933" fill="#00f"/><path d="M157.004 88.57l-20.293 12.754M157.977 94.62l-16.235 10.204" stroke-width="1.2" stroke="#000" stroke-miterlimit="10" fill="none"/><path d="M201.18 158.867m.41-2.972l-1.043.04M202 152.92l-2.082.078m2.492-3.05l-3.125.116m3.535-3.086l-4.168.153m4.578-3.125l-5.207.195m5.618-3.168l-6.25.235m6.66-3.208l-7.292.274m7.703-3.246l-8.335.312m8.383-.644l-8.453.316" stroke="#000" stroke-miterlimit="10" fill="none"/><path d="M193.28 129.414h14v11h-14zm0 0" fill="#fff"/><g fill="#00f"><use xlink:href="#b" x="193.281" y="138.077"/><use xlink:href="#c" x="200.259" y="138.077"/></g><path d="M201.18 158.867l-20.293 12.75M201.18 158.867l21.19 11.196M222.37 170.063l.896 23.95M228.094 172.246l.72 19.16M242.664 157.313l-20.293 12.75M223.266 194.012l21.19 11.2M244.457 205.21l20.293-12.753M243.484 199.16l16.235-10.2M264.75 192.457l-.898-23.95M263.852 168.508l-21.188-11.196M259.098 172.375l-16.95-8.957M97.922 174.727L76.734 163.53M93.168 178.594l-16.953-8.957M98.82 198.676l-.898-23.95M76.734 163.53L56.44 176.28M56.44 176.28l.896 23.95M62.164 178.465l.72 19.16M56.44 176.28l-21.19-11.194M57.336 200.23l21.19 11.2M78.527 211.43l20.293-12.754M77.555 205.38l16.234-10.204" stroke-width="1.2" stroke="#000" stroke-miterlimit="10" fill="none"/></g></svg>
